assets/icons/supportdark.svg

<svg width="24" height="24" viewBox="0 0 24 24" fill="none" xmlns="http://www.w3.org/2000/svg">
<path d="M12.5361 18.4238C11.8612 18.9199 11.1256 19.3351 10.3027 19.459V18.4238H12.5361Z" fill="#CBD2D9" stroke="#CBD2D9"/>
<path d="M2.25879 10.6191V12.136C2.25879 14.0322 3.7757 14.4114 3.7757 14.4114C3.7757 14.4114 5.2926 18.9621 9.84332 18.9621" stroke="#CBD2D9" stroke-width="2" stroke-miterlimit="10" stroke-linecap="round"/>
<path d="M9.84277 0.5C11.2722 0.5 12.1218 0.856243 12.5996 1.1748C12.8404 1.33539 12.9947 1.49134 13.085 1.59961C13.1299 1.65359 13.1595 1.69633 13.1758 1.72168C13.181 1.72984 13.1849 1.73684 13.1875 1.74121H13.1885V1.74219L13.1895 1.74316L13.3262 2.0166H13.6357C14.9087 2.0168 15.9077 2.80362 16.6143 4.04004C17.3224 5.27924 17.6855 6.89733 17.6855 8.34277V10.877H16.4023C16.3289 8.68266 15.7795 7.06115 15.2188 5.96191C14.918 5.37251 14.6144 4.935 14.3828 4.6416C14.2671 4.4951 14.1688 4.38464 14.0977 4.30859C14.0621 4.27056 14.0338 4.24058 14.0127 4.21973C14.0024 4.2095 13.9937 4.20146 13.9873 4.19531C13.9841 4.19222 13.9807 4.18954 13.9785 4.1875L13.9746 4.18359L13.6357 4.55078L13.9736 4.18262L13.4541 3.7041L13.1758 4.35352C12.1597 6.72442 9.99553 7.08306 7.7666 7.4707C6.70128 7.65598 5.57426 7.85693 4.72754 8.39453C4.28929 8.67282 3.91786 9.0452 3.66016 9.5498C3.46575 9.93057 3.34484 10.3705 3.29785 10.877H2V8.34277L2.0127 7.88281C2.26625 3.1907 6.37779 0.500111 9.84277 0.5Z" fill="#CBD2D9" stroke="#CBD2D9"/>
<path d="M10.6016 15.9283H14.3938C15.1984 15.9283 15.9701 15.6087 16.5391 15.0397C17.108 14.4708 17.4276 13.6991 17.4276 12.8945V10.6191" stroke="#CBD2D9" stroke-width="1.5" stroke-miterlimit="10" stroke-linecap="round"/>
<path d="M17.4268 10.3594C17.6965 10.3594 17.9558 10.4665 18.1465 10.6572C18.337 10.8478 18.4443 11.1065 18.4443 11.376V12.1348C18.4443 12.4043 18.337 12.6628 18.1465 12.8535C17.9558 13.0442 17.6965 13.1514 17.4268 13.1514H16.4102V10.3594H17.4268Z" fill="#CBD2D9" stroke="#CBD2D9"/>
<path d="M9.57324 14.7188H10.4043C10.6025 14.7188 10.7927 14.7977 10.9326 14.9375C11.0724 15.0772 11.1513 15.2666 11.1514 15.4639C11.1514 15.6614 11.0725 15.8514 10.9326 15.9912C10.7927 16.131 10.6025 16.2099 10.4043 16.21H9.57324C9.37508 16.21 9.18492 16.131 9.04492 15.9912C8.90493 15.8514 8.82617 15.6614 8.82617 15.4639C8.82626 15.2665 8.90502 15.0773 9.04492 14.9375C9.18493 14.7976 9.37502 14.7188 9.57324 14.7188Z" fill="#CBD2D9" stroke="#CBD2D9"/>
</svg>

<svg width="24" height="24" viewBox="0 0 24 24" fill="none" xmlns="http://www.w3.org/2000/svg"><path d="M12.54 18.42c-.68.5-1.41.92-2.24 1.04v-1.04z" fill="#CBD2D9" stroke="#CBD2D9"/><path d="M2.26 10.62v1.52c0 1.9 1.52 2.27 1.52 2.27s1.51 4.55 6.06 4.55" stroke="#CBD2D9" stroke-width="2" stroke-miterlimit="10" stroke-linecap="round"/><path d="M9.84.5c1.43 0 2.28.36 2.76.67a2 2 0 0 1 .58.55v.02h.01l.14.28h.3c1.28 0 2.28.78 2.98 2.02a9 9 0 0 1 1.08 4.3v2.54H16.4c-.07-2.2-.62-3.82-1.18-4.92a8 8 0 0 0-1.2-1.74l-.03-.02-.01-.01-.34.36.33-.37-.52-.48-.27.65C12.16 6.72 10 7.08 7.77 7.47c-1.07.19-2.2.39-3.04.92q-.67.41-1.07 1.16-.3.57-.36 1.33H2V8.34l.01-.46C2.27 3.2 6.38.5 9.84.5Z" fill="#CBD2D9" stroke="#CBD2D9"/><path d="M10.6 15.93h3.8a3.03 3.03 0 0 0 3.03-3.04v-2.27" stroke="#CBD2D9" stroke-width="1.5" stroke-miterlimit="10" stroke-linecap="round"/><path d="M17.43 10.36a1 1 0 0 1 1.01 1.02v.75a1 1 0 0 1-1.01 1.02H16.4v-2.8zm-7.86 4.36h.83a.75.75 0 0 1 .53 1.27.8.8 0 0 1-.53.22h-.83a.75.75 0 0 1-.53-1.27.8.8 0 0 1 .53-.22Z" fill="#CBD2D9" stroke="#CBD2D9"/></svg>
